resources/svg/telegram-line.svg

<svg fill="currentColor" viewBox="0 0 24 24" xmlns="http://www.w3.org/2000/svg"><path d="M12.001 20C16.4193 20 20.001 16.4183 20.001 12C20.001 7.58172 16.4193 4 12.001 4C7.5827 4 4.00098 7.58172 4.00098 12C4.00098 16.4183 7.5827 20 12.001 20ZM12.001 22C6.47813 22 2.00098 17.5228 2.00098 12C2.00098 6.47715 6.47813 2 12.001 2C17.5238 2 22.001 6.47715 22.001 12C22.001 17.5228 17.5238 22 12.001 22ZM8.89113 13.1708L6.39308 12.3911C5.85317 12.2255 5.84996 11.854 6.51397 11.5871L16.247 7.82754C16.8115 7.59644 17.1325 7.88842 16.9495 8.61641L15.2917 16.4377C15.1763 16.9941 14.8407 17.1266 14.3759 16.8698L11.825 14.9823L10.6361 16.1297C10.5139 16.2476 10.4145 16.3489 10.2273 16.3743C10.04 16.3996 9.88564 16.3442 9.77337 16.0337L8.90378 13.1628L8.89113 13.1708Z"/></svg>

<svg xmlns="http://www.w3.org/2000/svg" viewBox="0 0 24 24" fill="currentColor">
    <g>
        <path fill="none" d="M0 0h24v24H0z"/>
        <path fill-rule="nonzero" d="M12 20a8 8 0 1 0 0-16 8 8 0 0 0 0 16zm0 2C6.477 22 2 17.523 2 12S6.477 2 12 2s10 4.477 10 10-4.477 10-10 10zm-3.11-8.83l-2.498-.779c-.54-.165-.543-.537.121-.804l9.733-3.76c.565-.23.885.061.702.79l-1.657 7.82c-.116.557-.451.69-.916.433l-2.551-1.888-1.189 1.148c-.122.118-.221.219-.409.244-.187.026-.341-.03-.454-.34l-.87-2.871-.012.008z"/>
    </g>
</svg>
